X:1
T:Title
%%score { ( 1 4 ) | ( 2 3 ) }
L:1/8
Q:1/4=100
M:4/4
K:Eb
V:1 treble nm="Grand Piano"
V:4 treble 
V:2 bass 
V:3 bass 
V:1
 .[GB]2 .[GB]2 .[GB]2 [EG]>[FA] | B2 c2 B2 E>F | G2 G>G F2 E2 | [DF]4 z4 | %4
w: William~J.~Kirkpatrick * * * *||||
 [B,GB]2 [GB]>[GB] [EGB]2 [B,EG]>[A,FA] | B2 c2 B2 E>F | G2 G2 [EG]2 [DF]2 | E4 z4 | %8
w: ||||
 [CEA]2 [CEA]>[CEA] [CEA]2 [CE]>[CEF] | z4 [EG]2 z2 | [CEA]2 [CEA]>[CEA] [CEA]2 [CE]>[CEF] | %11
w: |||
 [B,EG]2 [B,EG]2 [B,DF].C.B,.A, | B2 [FB]>[FB] [Fe]2 [Fd]>[Fd] | c2 B2 BA [CG]>[CF] | %14
w: |||
 [B,E]2 [EG]2 [DF]2 [FA]2 | G6 z2 | G2 G2 G2 GE/E/ | .GE.GE .G[K:bass]F,E,D, | %18
w: ||||
 .[EG]2 .[EG]2 .[EG]2 .[EG]c/c/ | =Bcde d[K:bass]A,F,=B, | [Ge]2 [Ad]>[Ad] [Be]2 [GB]>[GB] | %21
w: |||
 [Ac]2 [B_d]2 cCA,G, | %22
w: |
 .[Af]2 [DAd][DAc] [EGB]2 [Ge]>[Ge][Q:1/4=97][Q:1/4=94][Q:1/4=91][Q:1/4=88][Q:1/4=84][Q:1/4=81][Q:1/4=78] | %23
w: |
 e2 [Ad]2 [Ge]4 |] %24
w: |
V:2
 .[E,G,]2 .[E,B,]2 .[E,E]2 [E,B,]>[E,A,] | [E,G,E]2 [E,A,E]2 [E,G,E]2 [E,G,B,]>[E,A,B,] | %2
 [E,B,E]2 E>E [D,F,B,]2 [C,=A,C]2 | [B,,B,]2 A,2 .G,2 .F,2 | E,2 [E,G,]>[E,G,] E,2 E,>E, | %5
 [E,G,E]2 [E,A,E]2 [E,G,E]2 [G,B,]>[A,CE] | [B,E]2 [B,E]2 [B,,B,]2 [B,,A,]2 | %7
 [E,G,]2 ._D,2 .C,2 .B,,2 | A,,2 A,,>A,, A,,2 A,,>A,, | E,2 E,2 E,._D,.C,.B,, | %10
 A,,2 A,,>A,, A,,2 A,,>A,, | E,2 E,2 B,,.A,.G,.F, | %12
 [E,G,E]2 [D,F,]>[D,F,] [C,=A,]2 [B,,B,]>[B,,B,] | %13
 [A,EA]2 [G,C=E]2[K:bass] [F,CF]2 [A,,A,]>[A,,A,] | [B,,G,]2 [B,,B,]2 [B,,B,]2 [B,,B,]2 | %15
 [E,B,E]6 z2 | z4 z2 .G,2 | [=B,D]C[DF]C .[G,B,D]2 z2 | %18
 .[C,C]2 .[C,C]2 .[C,C]2 .C[G,E]/[K:treble][G,E]/ | [G,D][G,E][=B,G][CG] .[G,B,G]2 z2 | %20
 [E,B,]2 [F,B,]>[F,B,] [G,B,]2 [E,E]>[E,E] | [A,E]2 [G,E]2 .[A,EA]2 z2 | %22
 z e[K:bass]F,F, G,2 [E,B,]>[E,B,] | [B,F]2 [B,,B,]2 [E,B,]4 |] %24
V:3
 x8 | x8 | z2 [E,B,]2 z4 | x8 | x8 | x8 | x8 | x8 | x8 | x8 | x8 | x8 | x8 | x4[K:bass] x4 | x8 | %15
 x8 | .[G,,G,]2 .[G,,G,]2 .[G,,G,]2 G,,-[G,,-C]/[G,,C]/ | G,2 G,2 z4 | z4 z2 C,2[K:treble] | %19
 z2 G,2 z4 | x8 | x8 | [F,C]2[K:bass] z2 z4 | x8 |] %24
V:4
 x8 | x8 | x8 | z2 .B,2 .B,2 .B,2 | x8 | x8 | x8 | z2 .B,2 .A,2 .G,2 | x8 | %9
 [B,EG]2 [B,EG]2 B,.G,.A,.B, | x8 | x8 | x8 | x8 | x8 | x8 | x8 | x5[K:bass] x3 | x8 | %19
 x5[K:bass] x3 | x8 | x8 | x8 | x8 |] %24

